X:1
T:Holy Is the Lord
T:Holy Is the Lord
%%score ( 1 2 ) ( 3 4 )
L:1/8
M:3/4
K:Eb
V:1 treble nm="Piano" snm="Pno."
V:2 treble 
V:3 bass nm="Piano" snm="Pno."
V:4 bass 
V:1
 [EG]4 [EG]2 | [DF]4 [EG]2 | [EA]6 | [EG]4 z2 | F4 F2 | [DF]4 [DG]2 | (([B,E]6 | [DF]4)) z2 | %8
w: Ho- ly,|ho- ly,|ho-|ly,|ho- ly|is the|Lord.|_|
 [EG]4 [EG]2 | [DF]4 [EG]2 | [EA]6 | [EG]4 z2 | F4 F2 | [DF]4 [DG]2 | [B,E]6- | [B,E]4 z2 | %16
w: Ho- ly,|ho- ly,|ho-|ly,|ho- ly|is the|Lord.||
 [EB]4 [EB]2 | [FB]4 [FB]2 | c6 | [FA]4 z2 | [FA]4 [FB]2 | [EG]4 E2 | [DF]6- | [DF]4 z2 | %24
w: Ho- ly|is the|Fa-|ther,|ho- ly|is the|Son,||
 [_DG]4 [DG]2 | [_DF]4 E2 | A6 | [EG]4 z2 | [Fc]4 F2 | [DF]4 [DG]2 | [B,E]6- | [B,E]6 |] %32
w: Ho- ly|is the|Spi-|rit:|bles- sed|Three- in-|One.||
V:2
 x6 | x6 | x6 | x6 | E4 E2 | x6 | x6 | x6 | x6 | x6 | x6 | x6 | E4 E2 | x6 | x6 | x6 | x6 | x6 | %18
 (=E4 G2) | x6 | x6 | x4 E2 | x6 | x6 | x6 | x4 _D2 | (C2 E4) | x6 | x4 E2 | x6 | x6 | x6 |] %32
V:3
 [E,B,]4 [E,B,]2 | [B,,B,]4 [E,B,]2 | [A,,C]6 | [E,B,]4 z2 | [A,,C]4 [A,,C]2 | [B,,A,]4 [B,,B,]2 | %6
 (([E,G,]6 | [B,,B,]4)) z2 | [E,B,]4 [E,B,]2 | [B,,B,]4 [B,,_D]2 | (([A,,C]4 [C,A,]2)) | %11
 [E,B,]4 z2 | [B,,A,]4 [B,,A,]2 | [B,,A,]4 [B,,B,]2 | [E,G,]6- | [E,G,]4 z2 | [E,G,]4 [E,G,]2 | %17
 [_D,G,]4 [D,G,]2 | (([C,G,]4 [=E,C]2)) | [F,C]4 z2 | [D,B,]4 [D,B,]2 | [E,B,]4 [G,B,]2 | B,6- | %23
 B,4 z2 | [E,B,]4 [E,B,]2 | [E,A,]4 [E,G,]2 | (A,2 C4) | [E,B,]4 z2 | [A,,C]4 [A,,C]2 | %29
 [B,,A,]4 [B,,B,]2 | [E,G,]6- | [E,G,]6 |] %32
V:4
 x6 | x6 | x6 | x6 | x6 | x6 | x6 | x6 | x6 | x6 | x6 | x6 | x6 | x6 | x6 | x6 | x6 | x6 | x6 | %19
 x6 | x6 | x6 | B,6- | B,4 x2 | x6 | x6 | A,,6 | x6 | x6 | x6 | x6 | x6 |] %32

